<?xml version="1.0" encoding="UTF-8"?>
<map version="1.10" tiledversion="1.12.1" orientation="orthogonal" renderorder="right-down" width="30" height="20" tilewidth="185" tileheight="190" infinite="1" nextlayerid="3" nextobjectid="1">
 <tileset firstgid="1" source="tiles_v2.tsx"/>
 <tileset firstgid="260" source="tiles.tsx"/>
 <layer id="1" name="图块层 1" width="30" height="20">
  <data encoding="csv">
   <chunk x="-16" y="-16" width="16" height="16">
260,260,260,260,260,260,260,260,260,260,260,260,260,260,260,260,
260,260,260,260,260,260,260,260,260,260,260,260,260,260,260,260,
260,260,260,260,260,260,260,260,260,260,260,260,260,260,260,260,
260,260,260,260,260,260,260,260,260,260,260,260,260,260,260,260,
260,260,260,260,260,260,260,260,260,260,260,260,260,260,260,260,
260,260,260,260,260,260,260,260,260,260,260,260,260,260,260,260,
260,260,260,260,260,260,260,260,260,260,260,260,260,260,260,260,
260,260,260,260,260,260,260,260,260,260,260,260,260,260,260,260,
260,260,260,260,260,260,260,260,260,260,260,260,260,260,260,260,
260,260,260,260,260,260,260,260,260,260,260,260,260,260,260,260,
260,260,260,260,260,260,260,260,260,260,260,260,260,260,260,260,
260,260,260,260,260,260,260,260,260,260,260,260,260,260,260,260,
260,260,260,260,260,260,260,260,260,260,260,260,260,260,260,260,
260,260,260,260,260,260,260,260,260,260,260,260,260,260,260,260,
260,260,260,260,260,260,260,260,260,260,260,260,260,260,260,260,
1,1,1,1,1,1,1,1,1,1,1,1,1,1,1,1
</chunk>
   <chunk x="0" y="-16" width="16" height="16">
260,0,0,0,0,0,0,0,0,0,0,0,0,0,0,0,
260,0,0,0,0,0,0,0,0,0,0,0,0,0,0,0,
260,0,0,0,0,0,0,0,0,0,0,0,0,0,0,0,
260,0,0,0,0,0,0,0,0,0,0,0,0,0,0,0,
260,0,0,0,0,0,0,0,0,0,0,0,0,0,0,0,
260,0,0,0,0,0,0,0,0,0,0,0,0,0,0,0,
260,0,0,0,0,0,0,0,0,0,0,0,0,0,0,0,
260,0,0,0,0,0,0,0,0,0,0,0,0,0,0,0,
260,0,0,0,0,0,0,0,0,0,0,0,0,0,0,0,
260,0,0,0,0,0,0,0,0,0,0,0,0,0,0,0,
260,0,0,0,0,0,0,0,0,0,0,0,0,0,0,0,
260,0,0,0,0,0,0,0,0,0,0,0,0,0,0,0,
260,0,0,0,0,0,0,0,0,0,0,0,0,0,0,0,
260,0,0,0,0,0,0,0,0,0,0,0,0,0,0,0,
260,0,0,0,0,0,0,0,0,0,0,0,0,0,0,0,
1,0,0,0,0,0,0,0,0,0,0,0,0,0,0,0
</chunk>
  </data>
 </layer>
</map>
